!!!COM: de Machuat, Guillaume
!!!OTL: Mors sui, se je ne vous voy
!! Guillaume de Machaut, "Mors sui, se je ne vous voy" No. 26 from Volume 5 of
!! "Oeuvres Comple\tes" E/ditions de l'Oiseau-lyre (Monaco) -1977; p.47
!! the second ending is encoded.
**kern	**kern
*M6/8	*M6/8
=1	=1
2.G	8e
.	4d
.	8c#
.	8d
.	8c#
=2	=2
2.d	8d
.	[4B-
.	4B-]
.	8B-
=3	=3
2.B-	4d
.	8c#
.	8d
.	4B-
=4	=4
8r	4A
8d	.
8c	8B-
8d	8A
4B-	8B-
.	8G
=5	=5
[{4.c#	4.A
4c#]	4.r
8d}	.
=6	=6
4.B-	4.G
4.A	4.F#
=7	=7
4.G	4.G
4.c	4r
.	8A
=8	=8
4d	4B-
8c	8c
4B-	4B-
8A	8c
=9	=9
4.G	4.d
4.A	4.c#
=10	=10
4B-	4.d
8A	.
4G	4.r
8A	.
=11	=11
2.F	4g
.	8f
.	4f
.	8e
=12	=12
4G	4d
8A	8c
4B-	4B-
8c	8A
=13	=13
8e-	4.G
4d	.
8c	4r
4B-	.
.	8G
=14	=14
2.A	4.E
.	4.F#
=15	=15
2.G	2.G
=16	=16
2.G	[4.B-
.	4B-]
.	8B-
=17	=17
8d	4A
8c	.
8d	8G
4B-	4G
8A	8F#
=18	=18
2.G	4.G
.	4.r
=19	=19
2.F	4g
.	8f
.	4f
.	8e
=20	=20
2.G	4e
.	8d
.	4d
.	8c
=21	=21
4r	4.d
8d	.
4.d	4r
.	8G
=22	=22
8d	4.E
8c	.
8B-	.
4A	4.F#
8B-	.
=23	=23
2.G	2.G
==	==
*-	*-
